assets/icons/newslatter-submit.svg

<svg width="44" height="39" viewBox="0 0 44 39" fill="none" xmlns="http://www.w3.org/2000/svg">
<path d="M22.3099 23.8269C15.6829 30.4579 14.5149 31.6949 14.4769 31.6469C14.6509 31.4849 14.2959 32.2729 18.5289 21.8069C18.9089 22.0069 18.4939 21.7869 22.3069 23.8269H22.3099ZM9.76993 30.1559C9.34693 30.0649 10.0839 29.5919 0.515926 37.4199C0.453942 37.4705 0.402535 37.5329 0.364643 37.6034C0.32675 37.6739 0.303118 37.7511 0.295086 37.8307C0.287053 37.9104 0.294786 37.9908 0.317837 38.0674C0.340887 38.1441 0.378807 38.2154 0.429432 38.2774C0.480056 38.3394 0.542389 38.3908 0.612881 38.4287C0.683372 38.4666 0.760641 38.4902 0.840267 38.4982C0.919893 38.5063 1.00032 38.4986 1.07696 38.4755C1.1536 38.4524 1.22495 38.4145 1.28693 38.3639L10.0309 31.2099C10.1193 31.1381 10.1854 31.0426 10.2215 30.9346C10.2576 30.8266 10.2623 30.7106 10.2349 30.6001C10.2075 30.4895 10.1493 30.3891 10.0669 30.3104C9.98461 30.2318 9.88159 30.1782 9.76993 30.1559ZM10.4319 24.5699C10.1319 24.5699 10.7319 24.1799 2.90393 30.2629C2.83659 30.3104 2.77959 30.3711 2.73636 30.4413C2.69313 30.5115 2.66456 30.5897 2.65239 30.6712C2.64022 30.7527 2.6447 30.8358 2.66555 30.9156C2.68641 30.9953 2.72321 31.07 2.77372 31.1351C2.82424 31.2003 2.88743 31.2545 2.95948 31.2945C3.03153 31.3345 3.11094 31.3595 3.19292 31.368C3.2749 31.3765 3.35776 31.3683 3.43647 31.3439C3.51519 31.3194 3.58815 31.2793 3.65093 31.2259L10.8069 25.6619C10.9071 25.5838 10.9804 25.4763 11.0165 25.3546C11.0527 25.2328 11.0499 25.1027 11.0086 24.9826C10.9674 24.8625 10.8896 24.7582 10.7862 24.6844C10.6828 24.6106 10.559 24.5699 10.4319 24.5699ZM13.5319 31.4029L42.7369 2.4149C33.7269 9.5549 31.8639 10.9569 19.3369 20.8669L32.6459 28.0069C38.6459 12.7919 40.6559 7.7439 42.7399 2.4149L13.5319 31.4029ZM17.7999 20.5459C17.7219 20.6219 17.7709 20.5669 17.6749 20.7249C17.1379 22.0579 17.7749 20.4769 13.5319 30.9759C13.4793 31.1123 13.4793 31.2635 13.5319 31.3999C13.3859 31.0129 12.8409 28.4569 11.0619 20.7609L0.561931 19.9609C0.426324 19.9504 0.298133 19.8948 0.197803 19.8029C0.0974738 19.7111 0.0307779 19.5883 0.00834258 19.4542C-0.0140927 19.32 0.00902785 19.1822 0.0740164 19.0627C0.139005 18.9433 0.242124 18.849 0.366932 18.7949C50.8029 -2.9941 42.9279 0.413902 43.8829 0.000902425C44.0429 -0.157098 17.8629 20.4849 17.8089 20.5439L17.7999 20.5459Z" fill="white"/>
</svg>

<svg xmlns="http://www.w3.org/2000/svg" width="44" height="39" fill="none"><path fill="#fff" d="M22.31 23.827c-6.627 6.63-7.795 7.868-7.833 7.82.174-.162-.181.626 4.052-9.84.38.2-.035-.02 3.778 2.02zM9.77 30.156c-.423-.091.314-.564-9.254 7.264a.61.61 0 0 0 .77.944l8.745-7.154a.6.6 0 0 0-.261-1.054m.662-5.586c-.3 0 .3-.39-7.528 5.693a.61.61 0 1 0 .747.963l7.156-5.564a.61.61 0 0 0-.375-1.092m3.1 6.833L42.737 2.415c-9.01 7.14-10.873 8.542-23.4 18.452l13.309 7.14c6-15.215 8.01-20.263 10.094-25.592zM17.8 20.546c-.078.076-.03.02-.125.179-.537 1.333.1-.248-4.143 10.25a.6.6 0 0 0 0 .425c-.146-.387-.691-2.943-2.47-10.64l-10.5-.8a.609.609 0 0 1-.195-1.165C50.803-2.995 42.927.414 43.883 0c.16-.158-26.02 20.484-26.074 20.543z"/></svg>
